**kern
*clefC3
*k[]
*M2/2
=1-
1A
=2
8B
4A
2A
16G
16G
=3
4r
2G
4A
=4
(16B
2.B)
8A
(16A-
=5
4G)
8F
2G
16G
(16F
=6
16G#
4A)
2r
8A
16G#
=7
1F-
=8
4F
16E-
(8F
16F-)
8E-
16E-
4D
16E-
=9
2F
2G
=10
1A
=11
*_